tools/download-figma-icons/icons/outlined-large/warm-water.svg

<svg width="64" height="65" viewBox="0 0 64 65" fill="none" xmlns="http://www.w3.org/2000/svg">
<path d="M24.5 64.0018C19.8471 63.9833 15.3915 62.1198 12.1108 58.8204C8.83004 55.5209 6.99204 51.0547 7.00003 46.4018C7.00003 39.1618 16.18 25.1718 21.65 17.4718C21.9737 17.0177 22.4013 16.6475 22.897 16.3921C23.3928 16.1367 23.9424 16.0034 24.5 16.0034C25.0577 16.0034 25.6073 16.1367 26.103 16.3921C26.5988 16.6475 27.0263 17.0177 27.35 17.4718C32.82 25.1718 42 39.1618 42 46.4018C42.008 51.0547 40.17 55.5209 36.8893 58.8204C33.6085 62.1198 29.1529 63.9833 24.5 64.0018ZM24.5 19.0018C24.4214 19.0021 24.344 19.0214 24.2744 19.0579C24.2048 19.0945 24.145 19.1473 24.1 19.2118C15.27 31.6218 10 41.7918 10 46.4018C10 50.2474 11.5277 53.9356 14.247 56.6548C16.9663 59.3741 20.6544 60.9018 24.5 60.9018C28.3457 60.9018 32.0338 59.3741 34.7531 56.6548C37.4724 53.9356 39 50.2474 39 46.4018C39 41.7918 33.73 31.6218 24.9 19.2118C24.8551 19.1473 24.7953 19.0945 24.7257 19.0579C24.6561 19.0214 24.5787 19.0021 24.5 19.0018Z" fill="black"/>
<path d="M47 27.0017C44.3372 26.9858 41.7892 25.9148 39.9147 24.0234C38.0402 22.132 36.9921 19.5746 37 16.9117C37 12.8617 42 5.25166 44.91 1.08166C45.1465 0.747352 45.4597 0.47465 45.8234 0.286439C46.1871 0.0982279 46.5906 0 47 0C47.4095 0 47.813 0.0982279 48.1767 0.286439C48.5404 0.47465 48.8536 0.747352 49.09 1.08166C52 5.25166 57 12.8617 57 16.9117C57.008 19.5746 55.9599 22.132 54.0854 24.0234C52.2109 25.9148 49.6629 26.9858 47 27.0017ZM47 3.33166C42.67 9.51166 40 14.6917 40 16.9117C40 18.7682 40.7375 20.5486 42.0503 21.8614C43.3631 23.1742 45.1435 23.9117 47 23.9117C48.8566 23.9117 50.637 23.1742 51.9498 21.8614C53.2626 20.5486 54 18.7682 54 16.9117C54 14.6917 51.33 9.51166 47 3.33166Z" fill="black"/>
<path d="M20.5 54.0016C20.239 54.002 19.9825 53.9339 19.7561 53.804C19.5297 53.6741 19.3414 53.4871 19.21 53.2616C17.07 49.6216 18.21 47.2616 19.15 45.4316C19.96 43.7916 20.54 42.6116 19.2 40.2416C19.0849 40.0703 19.0064 39.8771 18.9693 39.6741C18.9323 39.4711 18.9375 39.2626 18.9847 39.0617C19.0319 38.8608 19.12 38.6718 19.2436 38.5065C19.3672 38.3413 19.5235 38.2033 19.7029 38.1012C19.8822 37.9991 20.0807 37.9351 20.2859 37.9132C20.4911 37.8914 20.6986 37.9121 20.8955 37.974C21.0923 38.036 21.2742 38.138 21.4299 38.2735C21.5855 38.409 21.7115 38.5751 21.8 38.7616C23.94 42.5216 22.8 44.8716 21.8 46.7616C20.99 48.4116 20.45 49.5016 21.8 51.7616C21.9292 51.9894 21.9966 52.2471 21.9953 52.509C21.994 52.7709 21.9241 53.028 21.7926 53.2545C21.6611 53.481 21.4726 53.6692 21.2459 53.8003C21.0191 53.9313 20.762 54.0007 20.5 54.0016Z" fill="black"/>
<path d="M27.5 54.0016C27.239 54.002 26.9825 53.9339 26.7561 53.804C26.5297 53.6741 26.3414 53.4871 26.21 53.2616C24.07 49.6216 25.21 47.2616 26.15 45.4316C26.96 43.7916 27.54 42.6116 26.2 40.2416C26.0849 40.0703 26.0064 39.8771 25.9693 39.6741C25.9323 39.4711 25.9375 39.2626 25.9847 39.0617C26.0319 38.8608 26.12 38.6718 26.2436 38.5065C26.3672 38.3413 26.5235 38.2033 26.7029 38.1012C26.8822 37.9991 27.0807 37.9351 27.2859 37.9132C27.4911 37.8914 27.6986 37.9121 27.8955 37.974C28.0923 38.036 28.2742 38.138 28.4299 38.2735C28.5855 38.409 28.7115 38.5751 28.8 38.7616C30.94 42.5216 29.8 44.8716 28.8 46.7616C27.99 48.4116 27.45 49.5016 28.8 51.7616C28.9292 51.9894 28.9966 52.2471 28.9953 52.509C28.994 52.7709 28.9241 53.028 28.7926 53.2545C28.6611 53.481 28.4726 53.6692 28.2459 53.8003C28.0191 53.9313 27.762 54.0007 27.5 54.0016Z" fill="black"/>
</svg>

<svg width="64" height="65" viewBox="0 0 64 65" fill="none" xmlns="http://www.w3.org/2000/svg"><path d="M24.5 64.002A17.57 17.57 0 0 1 7 46.402c0-7.24 9.18-21.23 14.65-28.93a3.5 3.5 0 0 1 5.7 0c5.47 7.7 14.65 21.69 14.65 28.93a17.57 17.57 0 0 1-17.5 17.6Zm0-45a.49.49 0 0 0-.4.21C15.27 31.622 10 41.792 10 46.402a14.5 14.5 0 0 0 29 0c0-4.61-5.27-14.78-14.1-27.19a.49.49 0 0 0-.4-.21Zm22.5 8a10.06 10.06 0 0 1-10-10.09c0-4.05 5-11.66 7.91-15.83a2.56 2.56 0 0 1 4.18 0C52 5.252 57 12.862 57 16.912a10.06 10.06 0 0 1-10 10.09Zm0-23.67c-4.33 6.18-7 11.36-7 13.58a7 7 0 0 0 14 0c0-2.22-2.67-7.4-7-13.58Z" fill="currentColor"/><path d="M20.5 54.002a1.49 1.49 0 0 1-1.29-.74c-2.14-3.64-1-6-.06-7.83.81-1.64 1.39-2.82.05-5.19a1.502 1.502 0 0 1 1.695-2.268 1.501 1.501 0 0 1 .905.788c2.14 3.76 1 6.11 0 8-.81 1.65-1.35 2.74 0 5a1.5 1.5 0 0 1-1.3 2.24Zm7 0a1.49 1.49 0 0 1-1.29-.74c-2.14-3.64-1-6-.06-7.83.81-1.64 1.39-2.82.05-5.19a1.502 1.502 0 0 1 1.695-2.268 1.501 1.501 0 0 1 .905.788c2.14 3.76 1 6.11 0 8-.81 1.65-1.35 2.74 0 5a1.5 1.5 0 0 1-1.3 2.24Z" fill="currentColor"/></svg>
